src/assets/pro-icon.svg

<svg width="35" height="16" viewBox="0 0 35 16" fill="none" xmlns="http://www.w3.org/2000/svg">
<path d="M31.9277 0C33.2102 3.10557e-05 34.25 1.03976 34.25 2.32227V12.9258C34.25 14.2082 33.2102 15.248 31.9277 15.248H5.24023L5.81836 11.9512C6.12325 12.4145 6.5445 12.805 7.08105 13.1221C7.62979 13.4268 8.28851 13.5791 9.05664 13.5791C9.93456 13.5791 10.7699 13.3598 11.5625 12.9209C12.3674 12.4696 13.0449 11.8474 13.5938 11.0547C14.1547 10.2499 14.526 9.34117 14.709 8.3291C14.7821 7.93889 14.8193 7.56653 14.8193 7.21289C14.8193 6.39575 14.6545 5.68207 14.3252 5.07227C13.9959 4.46247 13.5322 3.99336 12.9346 3.66406C12.337 3.33477 11.6541 3.16992 10.8857 3.16992C10.1175 3.16993 9.39822 3.32851 8.72754 3.64551C8.06899 3.96258 7.5201 4.353 7.08105 4.81641L7.33691 3.33398H5.25098L3.15527 15.248H2.32227C1.03977 15.248 4.60046e-05 14.2083 0 12.9258V2.32227C0 1.03974 1.03974 0 2.32227 0H31.9277ZM27.8965 3.16992C26.7502 3.16999 25.7076 3.4444 24.7686 3.99316C23.8418 4.54195 23.1098 5.28562 22.5732 6.22461C22.0488 7.16371 21.7861 8.20072 21.7861 9.33496C21.7861 10.1643 21.9637 10.9025 22.3174 11.5488C22.6833 12.195 23.1897 12.6952 23.8359 13.0488C24.4822 13.4024 25.2324 13.5791 26.0859 13.5791C27.2322 13.5791 28.2749 13.3109 29.2139 12.7744C30.153 12.2256 30.8975 11.4811 31.4463 10.542C31.9949 9.60308 32.2695 8.56658 32.2695 7.43262C32.2695 6.59112 32.0802 5.85293 31.7021 5.21875C31.3363 4.57235 30.8236 4.07244 30.165 3.71875C29.5065 3.35293 28.7501 3.16992 27.8965 3.16992ZM22.1807 3.16992C21.4856 3.16993 20.8515 3.34027 20.2783 3.68164C19.7174 4.02308 19.2291 4.49872 18.8145 5.1084L19.126 3.33398H17.04L15.2656 13.4141H17.3506L18.3027 8.01758C18.4979 7.02977 18.8393 6.33409 19.3271 5.93164C19.8149 5.52947 20.4611 5.32819 21.2656 5.32812H21.7969L22.1807 3.16992ZM27.6045 4.92578C28.3239 4.92585 28.9219 5.1577 29.3975 5.62109C29.873 6.07234 30.1104 6.71914 30.1104 7.56055C30.1103 8.30443 29.9455 9.00554 29.6162 9.66406C29.2869 10.3104 28.8295 10.8348 28.2441 11.2373C27.671 11.6275 27.0369 11.8232 26.3418 11.8232C25.6345 11.8232 25.0548 11.5967 24.6035 11.1455C24.1647 10.6943 23.9453 10.06 23.9453 9.24316C23.9453 8.48708 24.0975 7.77962 24.4023 7.12109C24.7194 6.45035 25.1524 5.91957 25.7012 5.5293C26.2622 5.12682 26.8971 4.92578 27.6045 4.92578ZM10.1172 4.98047C10.8489 4.98047 11.4531 5.21236 11.9287 5.67578C12.4165 6.12695 12.6601 6.76121 12.6602 7.57812C12.6602 7.84644 12.6357 8.09737 12.5869 8.3291C12.4649 9.02409 12.2149 9.63389 11.8369 10.1582C11.4589 10.6825 11.0077 11.0848 10.4834 11.3652C9.9712 11.6335 9.44674 11.7676 8.91016 11.7676C8.19058 11.7676 7.58648 11.5303 7.09863 11.0547C6.62301 10.579 6.38574 9.93236 6.38574 9.11523C6.38575 8.84695 6.4102 8.59694 6.45898 8.36523C6.58095 7.67009 6.83092 7.06593 7.20898 6.55371C7.587 6.04168 8.03185 5.65105 8.54395 5.38281C9.06828 5.11456 9.59285 4.98051 10.1172 4.98047Z" fill="#FE572A"/>
</svg>

<svg xmlns="http://www.w3.org/2000/svg" width="35" height="16" fill="none" viewBox="0 0 35 16"><path fill="#fe572a" d="M31.928 0a2.32 2.32 0 0 1 2.322 2.322v10.604a2.32 2.32 0 0 1-2.322 2.322H5.24l.578-3.297q.458.695 1.263 1.171.824.457 1.976.457 1.317 0 2.505-.658a6.05 6.05 0 0 0 2.032-1.866 6.8 6.8 0 0 0 1.115-2.726q.11-.585.11-1.116 0-1.225-.494-2.14a3.44 3.44 0 0 0-1.39-1.409q-.896-.494-2.05-.494-1.152 0-2.157.476-.989.476-1.647 1.17l.256-1.482H5.25L3.155 15.248h-.833A2.32 2.32 0 0 1 0 12.926V2.322A2.32 2.32 0 0 1 2.322 0zm-4.032 3.17q-1.719 0-3.127.823a6 6 0 0 0-2.196 2.232q-.787 1.409-.787 3.11 0 1.244.531 2.214a3.8 3.8 0 0 0 1.519 1.5q.969.53 2.25.53 1.72 0 3.128-.805a6.1 6.1 0 0 0 2.232-2.232q.823-1.408.823-3.11 0-1.262-.567-2.213a3.8 3.8 0 0 0-1.537-1.5q-.988-.55-2.268-.55m-5.715 0q-1.043 0-1.903.512-.841.512-1.463 1.426l.311-1.774H17.04l-1.774 10.08h2.085l.952-5.396q.292-1.482 1.024-2.086t1.939-.604h.53zm5.424 1.756q1.079 0 1.793.695.712.677.712 1.94 0 1.115-.494 2.103a4.2 4.2 0 0 1-1.372 1.573 3.3 3.3 0 0 1-1.902.586q-1.061 0-1.738-.678-.66-.676-.659-1.902 0-1.134.457-2.122.475-1.005 1.3-1.592a3.2 3.2 0 0 1 1.902-.603m-17.488.054q1.098 0 1.812.696.73.676.731 1.902 0 .403-.073.751a4.4 4.4 0 0 1-.75 1.83q-.568.785-1.354 1.206a3.35 3.35 0 0 1-1.573.403q-1.08 0-1.811-.713-.713-.714-.713-1.94 0-.402.073-.75.183-1.043.75-1.811a3.9 3.9 0 0 1 1.335-1.171 3.4 3.4 0 0 1 1.573-.403"/></svg>
